X: 20322
Q: "Moderato"
M: 6/8
L: 1/8
K: D
|:\
|:\
({g}Tf>ef) g2g | ({b}Taga) b3 | B>ee e>fg | {g}f>ed c>BA |\
(F>G)A A2d | (B>d)A (B>d)g | fba ({a}g>fe) | d>BA A2 :|


